outputs/icons/hardware/memory_round.svg

<svg xmlns="http://www.w3.org/2000/svg" width="1200" height="1200" fill="none"><g clip-path="url(#a)"><path fill="#000" d="M700 450H500c-27.5 0-50 22.5-50 50v200c0 27.5 22.5 50 50 50h200c27.5 0 50-22.5 50-50V500c0-27.5-22.5-50-50-50m-50 200H550V550h100zm400-150c0-27.5-22.5-50-50-50h-50V350c0-55-45-100-100-100H750v-50c0-27.5-22.5-50-50-50s-50 22.5-50 50v50H550v-50c0-27.5-22.5-50-50-50s-50 22.5-50 50v50H350c-55 0-100 45-100 100v100h-50c-27.5 0-50 22.5-50 50s22.5 50 50 50h50v100h-50c-27.5 0-50 22.5-50 50s22.5 50 50 50h50v100c0 55 45 100 100 100h100v50c0 27.5 22.5 50 50 50s50-22.5 50-50v-50h100v50c0 27.5 22.5 50 50 50s50-22.5 50-50v-50h100c55 0 100-45 100-100V750h50c27.5 0 50-22.5 50-50s-22.5-50-50-50h-50V550h50c27.5 0 50-22.5 50-50M800 850H400c-27.5 0-50-22.5-50-50V400c0-27.5 22.5-50 50-50h400c27.5 0 50 22.5 50 50v400c0 27.5-22.5 50-50 50"/></g><defs><clipPath id="a"><path fill="#fff" d="M0 0h1200v1200H0z"/></clipPath></defs></svg>

<svg width="1200" height="1200" viewBox="0 0 1200 1200" fill="none" xmlns="http://www.w3.org/2000/svg"><g clip-path="url(#clip0_238_1277)"><path d="M700 450H500C472.5 450 450 472.5 450 500V700C450 727.5 472.5 750 500 750H700C727.5 750 750 727.5 750 700V500C750 472.5 727.5 450 700 450ZM650 650H550V550H650V650ZM1050 500C1050 472.5 1027.5 450 1000 450H950V350C950 295 905 250 850 250H750V200C750 172.5 727.5 150 700 150C672.5 150 650 172.5 650 200V250H550V200C550 172.5 527.5 150 500 150C472.5 150 450 172.5 450 200V250H350C295 250 250 295 250 350V450H200C172.5 450 150 472.5 150 500C150 527.5 172.5 550 200 550H250V650H200C172.5 650 150 672.5 150 700C150 727.5 172.5 750 200 750H250V850C250 905 295 950 350 950H450V1000C450 1027.5 472.5 1050 500 1050C527.5 1050 550 1027.5 550 1000V950H650V1000C650 1027.5 672.5 1050 700 1050C727.5 1050 750 1027.5 750 1000V950H850C905 950 950 905 950 850V750H1000C1027.5 750 1050 727.5 1050 700C1050 672.5 1027.5 650 1000 650H950V550H1000C1027.5 550 1050 527.5 1050 500ZM800 850H400C372.5 850 350 827.5 350 800V400C350 372.5 372.5 350 400 350H800C827.5 350 850 372.5 850 400V800C850 827.5 827.5 850 800 850Z" fill="black"/></g><defs><clipPath id="clip0_238_1277"><path width="24" fill="white" d="M0 0H1200V1200H0V0z"/></clipPath></defs></svg>
